src/assets/bold/lm-lock-bold.svg

<svg width="24" height="24" viewBox="0 0 24 24" fill="none" xmlns="http://www.w3.org/2000/svg" fill="currentColor">
<path d="M19.4074 8.66667H16.4444V6.44444C16.4444 5.2657 15.9762 4.13524 15.1427 3.30175C14.3092 2.46825 13.1787 2 12 2C10.8212 2 9.69077 2.46825 8.85728 3.30175C8.02378 4.13524 7.55553 5.2657 7.55553 6.44444V8.66667H4.59257C4.19965 8.66667 3.82283 8.82275 3.545 9.10058C3.26717 9.37841 3.11108 9.75523 3.11108 10.1481V20.5185C3.11108 20.9114 3.26717 21.2883 3.545 21.5661C3.82283 21.8439 4.19965 22 4.59257 22H19.4074C19.8003 22 20.1771 21.8439 20.4549 21.5661C20.7328 21.2883 20.8889 20.9114 20.8889 20.5185V10.1481C20.8889 9.75523 20.7328 9.37841 20.4549 9.10058C20.1771 8.82275 19.8003 8.66667 19.4074 8.66667ZM9.03701 6.44444C9.03701 5.65862 9.34918 4.90498 9.90484 4.34931C10.4605 3.79365 11.2141 3.48148 12 3.48148C12.7858 3.48148 13.5394 3.79365 14.0951 4.34931C14.6508 4.90498 14.9629 5.65862 14.9629 6.44444V8.66667H9.03701V6.44444ZM19.4074 20.5185H4.59257V10.1481H19.4074V20.5185Z" fill="black"/>
</svg>

<svg xmlns="http://www.w3.org/2000/svg" width="24" height="24" fill="currentColor" viewBox="0 0 24 24">
  <path d="M19.407 8.667h-2.963V6.444a4.444 4.444 0 1 0-8.888 0v2.223H4.593a1.481 1.481 0 0 0-1.482 1.481v10.37A1.482 1.482 0 0 0 4.593 22h14.814a1.481 1.481 0 0 0 1.482-1.482v-10.37a1.481 1.481 0 0 0-1.482-1.481ZM9.037 6.444a2.963 2.963 0 0 1 5.926 0v2.223H9.037V6.444Zm10.37 14.075H4.593v-10.37h14.814v10.37Z"/>
</svg>
